X: 10634
T: Down By The River Side
R: waltz
M: 3/4
K: Gmajor
dc|"G" B2G2G2|"D" F2G2A2|"Em" B2G2B2|"C" c4Bc|"G" d2g2g2|"F" d2e2=f2|"D" A2F2A2|c4dc|
"G" B2G2G2|"D" F2G2A2|"Em" B2G2B2|"C" c4Bc|"G" d2g2g2|"F" d2e2=f2|"G" A2G2G2|G4Bc||
"G" d2g2f2|g2a2g2|"F" =f2d2e2|=f2z2 d2|"G" g2f2d2|"C" c2d2c2|"G" d2B2G2|"D" F4dc|
"G" B2G2G2|"D" F2G2A2|"Em" B2G2B2|"C" c4Bc|"G" d2g2g2|"F" d2e2=f2|"G"A2G2G2|G6||

